X:1
T:Mjölkvalsen
R:Vals
C: Mikael Frisk
M:3/4
L:1/4
K:D
|: d/d/ Dd | c/c/ D c | B/B/ D B | A/A/ D A|
B/B/ D B | c B A | d d/d/ d | d3 :|
|: d e e | c e e | B e e | A D A |
B/B/ D B | c B A | d d/d/ d | d3 :|

